icons/flame-16.svg

<svg width="16" height="16" viewBox="0 0 16 16" xmlns="http://www.w3.org/2000/svg">
  <path fill-rule="evenodd" clip-rule="evenodd" d="M7.99789 14.5001C10.8304 14.5001 12.9971 12.5193 12.9971 10C12.9971 8.53654 12.3174 7.80948 11.1193 6.61667C11.1071 6.60453 11.0949 6.59236 11.0826 6.58014C10.0696 5.57183 8.7824 4.29061 8.24911 2.14559C7.92718 2.40211 7.61813 2.72476 7.38529 3.09924C6.95273 3.79496 6.7637 4.67919 7.33879 5.82934C7.81231 6.77637 8.00841 8.11294 7.06066 9.06069C6.45006 9.67129 5.51641 9.90115 4.65812 9.69385C4.1002 9.55909 3.61121 9.25672 3.22215 8.81981C3.08407 9.16747 3.00001 9.57013 3 10.0001C2.99994 12.5298 5.1636 14.5001 7.99789 14.5001ZM9.5332 0.752514C9.49562 0.340008 9.16001 0.00931669 8.76889 0.145686C7.03463 0.750359 4.34051 3.18696 5.99715 6.50017C6.34142 7.1887 6.28164 7.71839 6 8.00003C5.58104 8.41899 4.45998 8.4869 3.95925 7.16847C3.78678 6.71435 3.30098 6.40593 2.92501 6.71353C2.03625 7.44067 1.50003 8.70216 1.5 10C1.49992 13.5121 4.49789 16.0001 7.99789 16.0001C11.4979 16.0001 14.4971 13.5 14.4971 10C14.4971 7.86282 13.3699 6.74064 12.1862 5.56222C10.9968 4.37809 9.7504 3.13717 9.5332 0.752514Z"/>
</svg>

<svg xmlns="http://www.w3.org/2000/svg" width="16" height="16" viewBox="0 0 16 16"><path fill-rule="evenodd" d="M7.998 14.5c2.832 0 5-1.98 5-4.5 0-1.463-.68-2.19-1.879-3.383l-.036-.037c-1.013-1.008-2.3-2.29-2.834-4.434-.322.256-.63.579-.864.953-.432.696-.621 1.58-.046 2.73.473.947.67 2.284-.278 3.232-.61.61-1.545.84-2.403.633a2.788 2.788 0 01-1.436-.874A3.21 3.21 0 003 10c0 2.53 2.164 4.5 4.998 4.5zM9.533.753C9.496.34 9.16.009 8.77.146 7.035.75 4.34 3.187 5.997 6.5c.344.689.285 1.218.003 1.5-.419.419-1.54.487-2.04-.832-.173-.454-.659-.762-1.035-.454C2.036 7.44 1.5 8.702 1.5 10c0 3.512 2.998 6 6.498 6s6.5-2.5 6.5-6c0-2.137-1.128-3.26-2.312-4.438-1.19-1.184-2.436-2.425-2.653-4.81z"/></svg>
